icon-themes/colibre_svg/cmd/lc_masterpage.svg

<svg viewBox="0 0 24 24" xmlns="http://www.w3.org/2000/svg"><path d="m5 3v18h14v-18z" fill="#fff"/><path d="m4 2v20h16v-20zm1 1h14v18h-14zm2 5v1h1v-1zm2 0v1h8v-1zm-2 2v1h1v-1zm2 0v1h8v-1zm-2 2v1h1v-1zm2 0v1h8v-1z" fill="#4d82b8"/><path d="m7 5v2h10v-2z" fill="#eac282"/></svg>

<svg xmlns="http://www.w3.org/2000/svg" viewBox="0 0 24 24">
  <path
     style="fill:#ffffff"
     d="M 5,3 V 21 H 19 V 3 Z"
     />
  <path
     style="fill:#4d82b8"
     d="M 4,2 V 22 H 20 V 2 Z M 5,3 H 19 V 21 H 5 Z M 7,8 V 9 H 8 V 8 Z m 2,0 v 1 h 8 V 8 Z m -2,2 v 1 h 1 v -1 z m 2,0 v 1 h 8 v -1 z m -2,2 v 1 h 1 v -1 z m 2,0 v 1 h 8 v -1 z"
     />
  <path
     style="fill:#eac282"
     d="M 7,5 V 7 H 17 V 5 Z"
     />
</svg>
